!!!!SEGMENT: pl-kk--kk-i-481--003_zangl-johann-baptist--msza-czteroglosowa-credo.krn
!!!cenid: 18xx:1431
!!!COM: Zangl, Johann Baptist
!!!COM-rismID: pe30084071
!!!CDT: 1821-1897
!!!CNT: Austrian; Italian
!!!OPR: Msza czterogłosowa
!!!OTL: Credo
!!!OMV: 003
!!!PDT:
!!!AGN: Sacred; Mass
!!!SMS-siglum: PL-Kk
!!!SMS-shelfmark: Kk.I.481
!!!SMS-shelfwork: 001-003 M
!!!SMS-variant: Tenor I PL-Kk KK.I.481:0002; Tenor II PL-Kk KK.I.481:0010-11; Bas I PL-Kk KK.I.481:0018; Bas II PL-Kk KK.I.481:0027;
!!!SMS-altvar: Tenor I PL-Kk KK.I.481:0006; Tenor II PL-Kk KK.I.481:0014; Bas I PL-Kk KK.I.481:0022; Bas II PL-Kk KK.I.481:0030; Partytura PL-Kk KK.I.481:0034-0035; Partytura PL-Kk KK.I.481:0040-0041;
!!!NIFC-rismSourceID: 1001140261
!!!NIFC-rismChildID: 1001140261
!!!NIFC-islandoraID: pl-kk:14352
!!!URL-pdf-islandora: https://repozytorium.nifc.pl/islandora/object/pl-kk%3A14352/datastream/PDF/view
!!!URL-scan: https://polish.musicsources.pl/pl/lokalizacje/galeria/rekopisy/6088 @EN{Scan on Polish Music Sources Website} @PL{Skany w portalu Dziedzictwo Muzyki Polskiej w otwartym dostępie}
!!!ONB-nifc: UWAGA: na podstawie głosów. Proszę uzupełnić pola SMS dot. partytury i głosów. Uwaga: części Mszy: 1. Kyrie, 2. Gloria, 3. Credo, 4. Sanctus, 5. Benedictus, 6. Agnus
!!!AIN: 2 empty 2 tenor
!!!key:
**kern	**text	**kern	**text	**kern	**text	**kern	**text
*part4	*part4	*part3	*part3	*part2	*part2	*part1	*part1
*staff4	*staff4	*staff3	*staff3	*staff2	*staff2	*staff1	*staff1
*Iempty	*	*Iempty	*	*Itenor	*	*Itenor	*
*I"Bas II	*	*I"Bas I	*	*I"Tenor II	*	*I"Tenor I	*
*I'B 2	*	*I'B 1	*	*I'T 2	*	*I'T 1	*
*group1	*	*group1	*	*group1	*	*group1	*
*clefF4	*	*clefF4	*	*clefG2	*	*clefG2	*
*k[]	*	*k[]	*	*k[]	*	*k[]	*
*C:	*	*C:	*	*C:	*	*C:	*
*M3/4	*	*M3/4	*	*M3/4	*	*M3/4	*
=1	=1	=1	=1	=1	=1	=1	=1
!LO:TX:a:B:t=Credo	!	!LO:TX:a:B:t=Credo	!	!LO:TX:a:B:t=Credo	!	!LO:TX:a:B:t=Allegro Molto	!
!LO:TX:a:B:t=Allegro Molto	!	!LO:TX:a:B:t=allegro Molto	!	!LO:TX:a:B:t=Allegro Molto	!	!LO:TX:a:B:t=Credo	!
4c\	Cre-	4c\	Cre-	4cc\	Cre-	4cc\	Cre-
8G\	-do	8G\	-do	8g/	-do	8g/	-do
8E\	in	8E\	in	8e/	in	8e/	in
8F\	u-	8F\	u-	8f/	u-	8f/	u-
8G\	-num	8G\	-num	8g/	-num	8g/	-num
=2	=2	=2	=2	=2	=2	=2	=2
2A\	De-	2A\	De-	2a/	De-	2a/	De-
4G\	-um	4G\	-um	4g/	-um	4g/	-um
=3	=3	=3	=3	=3	=3	=3	=3
4G\	Pa-	4G\	Pa-	4b\	Pa-	4g/	Pa-
8C/	-trem	8G\	-trem	8cc\	-trem	8ee\	-trem
8E\	o-	8G\	o-	8cc\	o-	8cc\	o-
8D\	-mni-	8G\	-mni-	8b\	-mni-	8dd\	-mni-
8C/	-po-	8G\	-po-	8cc\	-po-	8ee\	-po-
=4	=4	=4	=4	=4	=4	=4	=4
4G\	-ten-	4G\	-ten-	4cc\	-ten-	4ee\	-ten-
4G\	-tem	4G\	-tem	4b\	-tem	4dd\	-tem
4r	.	4r	.	4r	.	4r	.
!LO:LB:g=original	!	!	!	!	!	!	!
=5	=5	=5	=5	=5	=5	=5	=5
4d\	Pa-	4d\	Pa-	4dd\	pa-	4dd\	pa-
8A\	-trem	8A\	-trem	8a/	-trem	8a/	-trem
8F\	om-	8F\	om-	8f/	om-	8f/	om-
8G\	-ni-	8G\	-ni-	8g/	-ni-	8g/	-ni-
8A\	-po-	8A\	-po-	8a/	-po-	8a/	-po-
!	!	!LO:LB:g=original	!	!	!	!LO:LB:g=original	!
=6	=6	=6	=6	=6	=6	=6	=6
2B-X\	-ten-	2B-X\	-ten-	2b-X\	-ten-	2b-X\	-ten-
4A\	-tem	4A\	-tem	4a/	-tem	4a/	-tem
!	!	!	!	!LO:LB:g=original	!	!	!
=7	=7	=7	=7	=7	=7	=7	=7
4A\	fa-	4A\	fa-	4cc#X\	fa-	4ee\	fa-
(8D\L	-cto-	4A\	-cto-	4dd\	-cto-	(8ff\L	-cto-
8F\J)	.	.	.	.	.	8dd\J)	.
(8E\L	-rem	4A\	-rem	(8cc#\L	-rem	(8ee\L	-rem
8D\J)	.	.	.	8dd\J)	.	8ff\J)	.
=8	=8	=8	=8	=8	=8	=8	=8
4BBn/	coe-	4G\	coe-	4dd\	coe-	4gg\	coe-
4C/	-li	4G\	-li	4cc\	-li	4ee\	-li
4F\	et	4A\	et	4cc\	et	4ff\	et
=9	=9	=9	=9	=9	=9	=9	=9
(2G\	ter-	(2G\	ter-	(2cc\	ter-	2ee\	ter-
4GG/)	.	4F\)	.	4b\)	.	4dd\	.
=10	=10	=10	=10	=10	=10	=10	=10
4C/	-rae,	4E\	-rae	4cc\	-rae	4cc\	-rae
4r	.	4r	.	4r	.	4r	.
8C/	et	8G\	et	8cc\	et	8ee\	et
8E\	in	8G\	in	8cc\	in	8cc\	in
!LO:LB:g=original	!	!	!	!	!	!	!
=11	=11	=11	=11	=11	=11	=11	=11
4.F\	u-	4.G\	u-	4.b\	u-	4.b\	u-
8F\	-num	8G\	-num	8b\	-num	8b\	-num
8E\	Do-	8G\	Do-	8cc\	Do-	8cc\	Do-
8D\	-mi-	8G\	-mi-	8b\	-mi-	8dd\	-mi-
=12	=12	=12	=12	=12	=12	=12	=12
4.E\	-num	4.G\	-num	4.cc\	-num	4.cc\	-num
(8E\L	Je-	(8G\L	Je-	(8cc\L	Je-	(8cc\L	Je-
8D\J)	.	8F\J)	.	8b\J)	.	8dd\J)	.
8C/	-sum	8G\	-sum	8cc\	-sum	8ee\	-sum
=13	=13	=13	=13	=13	=13	=13	=13
2.BB/	Chri-	2.G\	Chri-	2.dd\	Chri-	(4ff\	Chri-
.	.	.	.	.	.	4gg\	.
.	.	.	.	.	.	4ff\)	.
!	!	!LO:LB:g=original	!	!	!	!LO:LB:g=original	!
=14	=14	=14	=14	=14	=14	=14	=14
4C/	-stum	4G\	-stum	4cc\	-stum	4ee\	-stum
4r	.	4r	.	4r	.	4r	.
8C/	De-	8G\	De-	8cc\	De-	8ee\	De-
8E\	-i	8G\	-i	8cc\	-i	8cc\	-i
!	!	!	!	!LO:LB:g=original	!	!	!
=15	=15	=15	=15	=15	=15	=15	=15
4.F\	u-	4.G\	u-	4.b\	u-	4.b\	u-
8F\	-ni-	8G\	-ni-	8b\	-ni-	8b\	-ni-
8E\	-ge-	8G\	-ge-	8cc\	-ge-	8cc\	-ge-
8D\	-ni-	8G\	-ni-	8b\	-ni-	8dd\	-ni-
=16	=16	=16	=16	=16	=16	=16	=16
4.E\	-tum	4.G\	-tum	4.cc\	-tum	4.cc\	-tum
(8E\L	Je-	(8G\L	Je-	(8cc\L	Je-	(8cc\L	Je-
8D\J)	.	8F\J)	.	8b\J)	.	8dd\J)	.
8C/	-sum	8G\	-sum	8cc\	-sum	8ee\	-sum
!LO:LB:g=original	!	!	!	!	!	!	!
=17	=17	=17	=17	=17	=17	=17	=17
(<4C/	Chri-	(4G\	Chri-	2.cc\	Chri-	2ee\	Chri-
4AA/	.	2A\)	.	.	.	.	.
4D\)	.	.	.	.	.	4ff#X\	.
=18	=18	=18	=18	=18	=18	=18	=18
4GG/	-stum	4G\	-stum	4b\	-stum	4gg\	-stum
4r	.	4r	.	4r	.	4r	.
4r	.	4r	.	4r	.	4r	.
=19	=19	=19	=19	=19	=19	=19	=19
4.F#X\	et	4.A\	et	4.cc\	et	4.dd\	et
8F#\	ex	8A\	ex	8cc\	ex	8dd\	ex
8F#\	Pa-	8A\	Pa-	8cc\	Pa-	8dd\	Pa-
8F#\	-tre	8A\	-tre	8cc\	-tre	8dd\	-tre
=20	=20	=20	=20	=20	=20	=20	=20
4G\	na-	4G\	na-	4b\	na-	(8ee\L	na-
.	.	.	.	.	.	8dd\J)	.
4G\	-tum	4G\	-tum	4b\	-tum	4cc\	-tum
4r	.	4r	.	4r	.	4r	.
!	!	!	!	!	!	!LO:LB:g=original	!
=21	=21	=21	=21	=21	=21	=21	=21
4.G#X\	an-	4.B\	an-	4.dd\	an-	4.ee\	an-
8G#\	-te	8B\	-te	8dd\	-te	8ee\	-te
!	!	!LO:LB:g=original	!	!	!	!	!
8G#\	o-	8B\	o-	8dd\	o-	8ee\	o-
16G#\	-mni-	16B\	-mni-	16dd\	-mni-	16ee\	-mni-
16G#\	-a	16B\	-a	16dd\	-a	16ee\	-a
!	!	!	!	!LO:LB:g=original	!	!	!
=22	=22	=22	=22	=22	=22	=22	=22
8.A\	sae-	8.A\	sae-	8.cc\	sae-	8.ff\	sae-
16A\	-cu-	16A\	-cu-	16cc\	-cu-	16ee\	-cu-
4A\	-la	4A\	-la	4cc\	-la	4ee\	-la
4r	.	4r	.	4r	.	4r	.
!LO:LB:g=original	!	!	!	!	!	!	!
=23	=23	=23	=23	=23	=23	=23	=23
2A\	an-	2c\	an-	2dd\	an-	2ff#X\	an-
4Gn\	-te	4B\	-te	4dd\	-te	4gg\	-te
=24	=24	=24	=24	=24	=24	=24	=24
8.F#X\	om-	8.c\	om-	8.dd\	om-	8.aa\	om-
16F#\	-ni-	16A\	-ni-	16cc\	-ni-	16dd\	-ni-
2F#\	-a	2A\	-a	2cc\	-a	2dd\	-a
=25	=25	=25	=25	=25	=25	=25	=25
(4G\	sae-	2G\	sae-	(4b\	sae-	(4dd\	sae-
4C/)	.	.	.	4cc\)	.	4ee\)	.
4D\	-cu-	4F#X\	-cu-	4a/	-cu-	8dd\L	-cu-
.	.	.	.	.	.	8cc\J	.
=26	=26	=26	=26	=26	=26	=26	=26
4G\	-la	4G\	-la	4b\	-la	4b\	-la
4r	.	4r	.	4r	.	4r	.
4r	.	4r	.	4r	.	4r	.
=27	=27	=27	=27	=27	=27	=27	=27
4c\	De-	4c\	De-	4cc\	De-	4ee\	De-
(8G\L	-um	(8G\L	-um	4cc\	-um	4ee\	-um
8E\J)	.	8E\J)	.	.	.	.	.
(8F\L	de	(8F\L	de	4cc\	de	4ee\	de
8G\J)	.	8G\J)	.	.	.	.	.
!	!	!	!	!	!	!LO:LB:g=original	!
=28	=28	=28	=28	=28	=28	=28	=28
2A\	De-	2A\	De-	2cc\	De-	2ee\	De-
4G\	-o	4G\	-o	4cc\	-o	4ee\	-o
!	!	!LO:LB:g=original	!	!	!	!	!
=29	=29	=29	=29	=29	=29	=29	=29
(8F\L	lu-	(8F\L	lu-	(4.cc\	lu-	(4.dd\	lu-
8E\J)	.	8E\J)	.	.	.	.	.
8F\	-men	8F\	-men	.	.	.	.
8D\	de	8D\	de	8dd\)	.	8ff\)	.
8G\	lu-	8G\	lu-	8cc\	-men	8ee\	-men
8GG/	-mi-	8G\	-mi-	8b\	de	8dd\	de
!LO:LB:g=original	!	!	!	!LO:LB:g=original	!	!	!
=30	=30	=30	=30	=30	=30	=30	=30
4C/	-ne	4G\	-ne	4cc\	lu-	4ee\	lu-
4r	.	4r	.	4cc\	-mi-	4ee\	-mi-
4r	.	4r	.	4b\	-ne	4dd\	-ne
=31	=31	=31	=31	=31	=31	=31	=31
(4A\	De-	(4A\	De-	2a/	De-	2cc\	De-
(8E\L	.	(8E\L	.	.	.	.	.
8C\J))	.	8C\J))	.	.	.	.	.
(8D\L	-um	(8D\L	-um	4a/	-um	4cc\	-um
8E\J)	.	8E\J)	.	.	.	.	.
=32	=32	=32	=32	=32	=32	=32	=32
4F\	ve-	4F\	ve-	4a/	ve-	4cc\	ve-
4F\	-rum	4F\	-rum	4a/	-rum	4cc\	-rum
4E\	de	4E\	de	4a/	de	4cc\	de
=33	=33	=33	=33	=33	=33	=33	=33
(8D\L	De-	(8D\L	De-	4.a/	De-	4.b\	De-
8E\J)	.	8C\J)	.	.	.	.	.
(8D\L	-o	(8D/L	-o	.	.	.	.
8BB\J)	.	8BB/J)	.	8b\	-o	8dd\	-o
4E\	ve-	4E\	ve-	(8a/L	ve-	(8cc\L	ve-
.	.	.	.	8g#X/J)	.	8b\J)	.
=34	=34	=34	=34	=34	=34	=34	=34
4AA/	-ro	4.A\	-ro	4a/	-ro	4cc\	-ro
4r	.	.	.	4r	.	4r	.
.	.	8A\	qui	.	.	.	.
4r	.	8A\	prop-	4r	.	4r	.
.	.	8G\	-ter	.	.	.	.
!	!	!	!	!	!	!LO:LB:g=original	!
=35	=35	=35	=35	=35	=35	=35	=35
!	!	!	!	!	!	!LO:TX:a:t=P:problem=zamazany tusz poprawiony innym kolorem	!
4.D\	prop-	(4.F#X\	prop-	2a/	prop-	2dd\	prop-
8E\	.	8G\)	.	.	.	.	.
8F#X\	-ter	8A\	-ter	8dd\	-ter	8dd\	-ter
8D\	nos	8F#\	nos	8cc\	nos	8dd\	nos
!LO:LB:g=original	!	!	!	!	!	!	!
=36	=36	=36	=36	=36	=36	=36	=36
8.G\	ho-	8.G\	ho-	8.b\	ho-	8.ee\	ho-
16G\	-mi-	16G\	-mi-	16b\	-mi-	16dd\	-mi-
8G\	-nes	4G\	-nes	4b\	-nes	4dd\	-nes
8G\	et	.	.	.	.	.	.
8G\	prop-	4r	.	4r	.	4r	.
8Fn\	-ter	.	.	.	.	.	.
!	!	!LO:LB:g=original	!	!	!	!	!
=37	=37	=37	=37	=37	=37	=37	=37
(4.E\	no-	(4.G#X\	no-	2b\	no-	2ee\	no-
8F#X\)	.	8A\)	.	.	.	.	.
8G#X\	-stram	8B\	-stram	8ee\	-stram	8ee\	-stram
8E\	sa-	8G#\	sa-	8dd\	sa-	8ee\	sa-
!	!	!	!	!LO:LB:g=original	!	!	!
=38	=38	=38	=38	=38	=38	=38	=38
4A\	-lu-	4A\	-lu-	4cc\	-lu-	(8ff\L	-lu-
.	.	.	.	.	.	8ee\J)	.
4A\	-tem	4A\	-tem	4cc\	-tem	4ee\	-tem
8.r	.	8.r	.	8.r	.	8.r	.
16G\	de-	16G\	de-	16cc\	de-	16ee\	de-
=39	=39	=39	=39	=39	=39	=39	=39
4D\	-scen-	4F#X\	-scen-	4cc\	-scen-	4aa\	-scen-
4F#X\	-dit	4A\	-dit	4cc\	-dit	4dd\	-dit
8.r	.	8.r	.	8.r	.	8.r	.
16F#\	de-	16A\	de-	16cc\	de-	16dd\	de-
=40	=40	=40	=40	=40	=40	=40	=40
!LO:TX:a:t=P:problem=kasownik dopisany innym tuszem	!	!	!	!	!	!	!
4F\	-scen-	4G\	-scen-	4b\	-scen-	4gg\	-scen-
4F\	-dit	4G\	-dit	4b\	-dit	4b\	-dit
8.r	.	8.r	.	8.r	.	8.r	.
16F\	de-	16G\	de-	16b\	de-	16b\	de-
!LO:LB:g=original	!	!	!	!	!	!LO:LB:g=original	!
=41	=41	=41	=41	=41	=41	=41	=41
4E\	-scen-	4G\	-scen-	4cc\	-scen-	4cc\	-scen-
4D\	-dit	4G\	-dit	4b\	-dit	4dd\	-dit
4C/	de-	4G\	de-	4b-X\	de-	4ee\	de-
=42	=42	=42	=42	=42	=42	=42	=42
4F\	-scen-	4F\	-scen-	4a/	-scen-	4ff\	-scen-
4F\	-dit	4F\	-dit	4a/	-dit	4a/	-dit
4FF/	de	4F\	de	4a/	de	4dd\	de
=43	=43	=43	=43	=43	=43	=43	=43
[2.GG/	coe-	(2.E\	coe-	[2.g/	coe-	(2.cc\	coe-
=44	=44	=44	=44	=44	=44	=44	=44
2.GG/]	.	2.D\)	.	2.g/]	.	2.b\)	.
=45	=45	=45	=45	=45	=45	=45	=45
4C;/	-li(s)	4E;\	-lis	4g;/	-lis.	4cc;\	-lis.
4r	.	4r	.	4r	.	4r	.
4r	.	4r	.	4r	.	4r	.
!	!	!LO:PB:g=original	!	!LO:LB:g=original	!	!	!
=46||	=46||	=46||	=46||	=46||	=46||	=46||	=46||
*k[b-]	*	*k[b-]	*	*k[b-]	*	*k[b-]	*
*M4/4	*	*M4/4	*	*M4/4	*	*M4/4	*
*met(c)	*	*met(c)	*	*met(c)	*	*met(c)	*
!	!	!	!	!LO:TX:a:t=P:problem=t.46-55 bemole dopisne innym tuszem	!	!LO:TX:a:B:t=Adagio	!
!LO:TX:a:B:t=Adagio	!	!LO:TX:a:B:t=Adagio	!	!LO:TX:a:B:t=Adagio	!	!LO:TX:a:B:t=Adagio	!
2F\	Et	2F\	Et	2a/	Et	2cc\	Et
4BB-/	in-	4F\	in-	4b-\	in-	4dd\	in-
4F\	-car-	4F\	-car-	4a/	-car-	4cc\	-car-
=47	=47	=47	=47	=47	=47	=47	=47
4.C/	-na-	4.G\	-na-	4.b-\	-na-	4.ee\	-na-
8C#X/	-tus	8G\	-tus	8b-\	-tus	8ee\	-tus
4D\	est	4F\	est	4a/	est	4ff\	est
4D\	de	4F\	de	4a/	de	4a/	de
!LO:LB:g=original	!	!	!	!	!	!	!
=48	=48	=48	=48	=48	=48	=48	=48
(4BB-/	Spi-	2F\	Spi-	(4b-\	Spi-	(4dd\	Spi-
4Cn/)	.	.	.	4a/)	.	4cc\)	.
4D\	-ri-	4F\	-ri-	4b-\	-ri-	4b-\	-ri-
4BB-/	-tu	4F\	-tu	4b-\	-tu	4dd\	-tu
!	!	!	!	!	!	!LO:LB:g=original	!
=49	=49	=49	=49	=49	=49	=49	=49
2C/	San-	(4F\	San-	2g/	San-	2cc\	San-
.	.	4E\)	.	.	.	.	.
4F\	cto	4F\	cto	4a/	cto	4a/	cto
4r	.	4r	.	4r	.	4r	.
=50	=50	=50	=50	=50	=50	=50	=50
4E-X\	ex	4F\	ex	4a/	ex	4cc\	ex
4E-\	Ma-	4F\	Ma-	4a/	Ma-	4cc\	Ma-
4D\	-ri-	4F\	-ri-	4b-\	-ri-	4dd\	-ri-
4BB-/	-a	4F\	-a	4dd\	-a	4ff\	-a
=51	=51	=51	=51	=51	=51	=51	=51
4.AA/	Vir-	4.F\	Vir-	4.cc\	Vir-	4.ff\	Vir-
8AA/	-gi-	8F\	-gi-	8cc\	-gi-	8ee-X\	-gi-
4BB-/	-ne	4F\	-ne	4b-\	-ne	4dd\	-ne
4BB-/	et	4F\	et	4b-\	et	4dd\	et
!	!	!	!	!LO:LB:g=original	!	!	!
=52	=52	=52	=52	=52	=52	=52	=52
2C/	ho-	2F\	ho-	2a/	ho-	2cc\	ho-
4D;,\	-mo	4F\	-mo	4g/	-mo	4bn;,\	-mo
4D\	et	4F\	et	4g/	et	4b\	et
!LO:PB:g=original	!	!LO:LB:g=original	!	!	!	!	!
=53	=53	=53	=53	=53	=53	=53	=53
4.C/	ho-	4.F\	ho-	4.a/	ho-	4.cc\	ho-
8C/	-mo	8F\	-mo	8a/	-mo	8cc\	-mo
4.C/	fac-	4.E\	fac-	4.b-\	fac-	4.dd\	fac-
8C/	-tus	8E\	-tus	8b-\	-tus	8cc\	-tus
=54	=54	=54	=54	=54	=54	=54	=54
4FF/	est	4F\	est	4a/	est	4cc\	est
4r;	.	4r;	.	4r;	.	4r;	.
4c\	Cru-	4c\	Cru-	4cc\	Cru-	4cc\	Cru-
4c\	-ci-	4c\	-ci-	4cc\	-ci-	4cc\	-ci-
!	!	!	!	!	!	!LO:PB:g=original	!
=55	=55	=55	=55	=55	=55	=55	=55
2F\	-fi-	4c\	-fi-	2a-/	-fi-	2ff\	-fi-
.	.	4c\	-xus	.	.	.	.
4F\	-xus	4r	.	4a-/	-xus	4cc\	-xus
4r	.	4c\	pro	4r	.	4r	.
=56	=56	=56	=56	=56	=56	=56	=56
4.E\	e-	4c\	no-	4.b-\	e-	4.gg\	e-
.	.	4c\	-bis,	.	.	.	.
8E\	-ti-	.	.	8b-\	-ti-	8gg\	-ti-
4E\	-am	4r	.	4.b-\	-am	4.cc\	-am
4E\	pro	4G\	pro	.	.	.	.
.	.	.	.	8b-\	pro	8cc\	pro
=57	=57	=57	=57	=57	=57	=57	=57
4F\	no-	4A-X\	no-	4a-X/	no-	4cc\	no-
4F\	-bis	4A-\	-bis	4a-/	-bis	4cc\	-bis
4r	.	4r	.	4r	.	4r	.
4F\	sub	4F\	sub	4a-/	sub	4cc\	sub
!LO:LB:g=original	!	!	!	!	!	!	!
=58	=58	=58	=58	=58	=58	=58	=58
4.F\	Pon-	4.F\	Pon-	4.a-X/	Pon-	4.dd-X\	Pon-
8F\	-ti-	8F\	-ti-	8a-/	-ti-	8dd-\	-ti-
4D-X\	-o	4F\	-o	4a-/	-o	4ff\	-o
4D-\	Pi-	4F\	Pi-	4a-/	Pi-	4ff\	Pi-
!	!	!	!	!LO:PB:g=original	!	!	!
=59	=59	=59	=59	=59	=59	=59	=59
4D-X\	-la-	4F\	-la-	4a-X/	-la-	4bn\	-la-
4D-\	-to	4F\	-to	4a-/	-to	4b\	-to
2r	.	2r	.	2r	.	2r	.
!	!	!LO:LB:g=original	!	!	!	!	!
=60	=60	=60	=60	=60	=60	=60	=60
2C/	pas-	2F\	pas-	2a-X/	pas-	2ff\	pas-
2C/	-sus,	2F\	-sus,	2a-/	-sus	2a-X/	-sus
=61	=61	=61	=61	=61	=61	=61	=61
2BBn/	pas-	2F\	pas-	2a-X/	pas-	2ff\	pas-
2BB/	-sus	2F\	-sus	2a-/	-sus	2a-X/	-sus
!	!	!	!	!	!	!LO:LB:g=original	!
=62	=62	=62	=62	=62	=62	=62	=62
!LO:TX:a:t=1.	!	!	!	!	!	!LO:TX:a:t=3.	!
1r	.	2F\	et	2a-X/	et	1r	.
.	.	2F\	se-	2a-/	se-	.	.
=63	=63	=63	=63	=63	=63	=63	=63
4C/	et	2F\	-pul-	2g/	-pul-	1r	.
4C/	se-	.	.	.	.	.	.
4C/	-pul-	2E\	-tus	2g/	-tus	.	.
4C/	-tus	.	.	.	.	.	.
=64	=64	=64	=64	=64	=64	=64	=64
2FF/	est	2F\	est	2f;/	est	1r;	.
2r	.	2r;	.	2r	.	.	.
!LO:LB:g=original	!	!	!	!	!	!	!
=65||	=65||	=65||	=65||	=65||	=65||	=65||	=65||
*k[]	*	*k[]	*	*k[]	*	*k[]	*
*M3/4	*	*M3/4	*	*M3/4	*	*M3/4	*
!LO:TX:a:B:t=Allegro	!	!	!	!	!	!	!
4c\	Et	4c\	Et	4cc\	Et	4cc\	Et
8G\	re-	8G\	re-	8g/	re-	8g/	re-
8E\	-sur-	8E\	-sur-	8e/	-sur-	8e/	-sur-
8F\	-re-	8F\	-re-	8f/	-re-	8f/	-re-
8G\	-xit	8G\	-xit	8g/	-xit	8g/	-xit
=66	=66	=66	=66	=66	=66	=66	=66
4A\	ter-	4A\	ter-	4a/	ter-	4a/	ter-
8A\	-ti-	8A\	-ti-	8a/	-ti-	8a/	-ti-
8A\	-a	8A\	-a	8a/	-a	8a/	-a
8G\	di-	8G\	di-	8g/	di-	8g/	di-
8G\	-e	8G\	-e	8g/	-e	8g/	-e
!	!	!	!	!LO:LB:g=original	!	!	!
=67	=67	=67	=67	=67	=67	=67	=67
4G\	se-	4G\	se-	4b\	se-	4cc\	se-
(8C/L	-cun-	4G\	-cun-	4cc\	-cun-	8ee\L	-cun-
8E/J)	.	.	.	.	.	8cc\J	.
8D\	-dum	8G\	-dum	8b\	-dum	8dd\	-dum
8C/	scrip-	8G\	scrip-	8cc\	scrip-	8ee\	scrip-
!	!	!LO:LB:g=original	!	!	!	!	!
=68	=68	=68	=68	=68	=68	=68	=68
4G\	-tu-	4G\	-tu-	4cc\	-tu-	4ee\	-tu-
4G\	-ras	4G\	-ras	4b\	-ras	4dd\	-ras
4r	.	4r	.	4r	.	4r	.
!LO:LB:g=original	!	!	!	!	!	!	!
=69	=69	=69	=69	=69	=69	=69	=69
8.d\	et	8.d\	et	8.dd\	et	8.dd\	et
16d\	as-	16d\	as-	16dd\	as-	16dd\	as-
(8A\L	-cen-	(8A\L	-cen-	(8a/L	-cen-	8a/L	-cen-
8F\J)	.	8F\J)	.	8f/J)	.	8f/J	.
8G\	-dit	8G\	-dit	8g/	-dit	8g/	-dit
8A\	in	8A\	in	8a/	in	8a/	in
!	!	!	!	!	!	!LO:LB:g=original	!
=70	=70	=70	=70	=70	=70	=70	=70
2B-X\	coe-	2B-X\	coe-	2b-X\	coe-	2b-X\	coe-
4A\	-lum	4A\	-lum	4a/	-lum	4a/	-lum
=71	=71	=71	=71	=71	=71	=71	=71
4A\	se-	4A\	se-	4cc#X\	se-	4ee\	se-
(8D\L	-det	4A\	-det	4dd\	-det	8ff\L	-det
8F\J)	.	.	.	.	.	8dd\J	.
(8E\L	ad	4A\	ad	8cc#X\L	ad	8ee\L	ad
8D\J)	.	.	.	8dd\J	.	8ff\J	.
=72	=72	=72	=72	=72	=72	=72	=72
4BBn/	dex-	4G\	dex-	4dd\	dex-	4gg\	dex-
4C/	-te-	4G\	-te-	4ccn\	-te-	4ee\	-te-
4F\	-ram	4A\	-ram	4cc\	-ram	4ff\	-ram
=73	=73	=73	=73	=73	=73	=73	=73
(<2G\	Pa-	(2G\	Pa-	(2cc\	Pa-	(2ee\	Pa-
4GG/)	.	4F\)	.	4b\)	.	4dd\)	.
=74	=74	=74	=74	=74	=74	=74	=74
4C/	-tris.	4E\	-tris	4cc\	-tris	4cc\	-tris
4r	.	4r	.	4r	.	4r	.
4r	.	4r	.	4r	.	4r	.
=75	=75	=75	=75	=75	=75	=75	=75
!LO:TX:a:t=P:problem=brak taktów 75-75 (dopisane innym tuszem)	!	!LO:TX:a:t=P:problem=brak taktów 75-75 (dopisane innym tuszem)	!	!	!	!LO:TX:a:t=P:problem=brak taktów 75-75 (dopisane innym tuszem)	!
2.F;\yy	a-	2.A;\yy	a-	2.ryy	.	2.ff;\yy	a-
=76	=76	=76	=76	=76	=76	=76	=76
2.C;/yy	-men.	2.G;\yy	-men.	2.ryy	.	2.ee;\yy	-men.
==	==	==	==	==	==	==	==
*-	*-	*-	*-	*-	*-	*-	*-
!!!system-decoration: [(g1)]
!!!RDF**kern: >= above
!!!RDF**kern: <= below
!!!ENC: Anna Matuszewska
!!!END: 2021-01-31
!!!ENC: Tomasz Grochalski
!!!END: 2021-01-28
!!!YEC: Copyright 2022 Narodowy Instytut Fryderyka Chopina (https://polishscores.org)
!!!YEM: License CC-BY-4.0 (https://creativecommons.org/licenses/by/4.0)
